X: 34959
T: Rocky Road To Mount Collins, The
R: polka
M: 2/4
K: Amajor
|:E2 FE|A2 EA|c2 Bc|BA F2|
E2 FE|A2 EA|c2 Bc|BA A2:|
|:ce ed/e/|fe cB|ce A>B|cB BA|
ce ed/e/|fe cB|ce cB|BA A2:|

